src/assets/duotone/Chart21.svg

<?xml version="1.0" encoding="UTF-8"?>
<svg width="24" height="24" viewBox="0 0 24 24" xmlns="http://www.w3.org/2000/svg">
 <path d="m22 22h-20c-0.41 0-0.75-0.34-0.75-0.75s0.34-0.75 0.75-0.75h20c0.41 0 0.75 0.34 0.75 0.75s-0.34 0.75-0.75 0.75z"/>
 <path d="m9.75 4v18h4.5v-18c0-1.1-0.45-2-1.8-2h-0.9c-1.35 0-1.8 0.9-1.8 2z"/>
 <path d="M3 10V22H7V10C7 8.9 6.6 8 5.4 8H4.6C3.4 8 3 8.9 3 10Z" opacity=".4"/>
 <path d="m17 15v7h4v-7c0-1.1-0.4-2-1.6-2h-0.8c-1.2 0-1.6 0.9-1.6 2z" opacity=".4"/>
</svg>

<svg width="24" height="24" viewBox="0 0 24 24"  xmlns="http://www.w3.org/2000/svg">
<path d="M22 22H2C1.59 22 1.25 21.66 1.25 21.25C1.25 20.84 1.59 20.5 2 20.5H22C22.41 20.5 22.75 20.84 22.75 21.25C22.75 21.66 22.41 22 22 22Z" />
<path d="M9.75 4V22H14.25V4C14.25 2.9 13.8 2 12.45 2H11.55C10.2 2 9.75 2.9 9.75 4Z" />
<path opacity="0.4" d="M3 10V22H7V10C7 8.9 6.6 8 5.4 8H4.6C3.4 8 3 8.9 3 10Z" />
<path opacity="0.4" d="M17 15V22H21V15C21 13.9 20.6 13 19.4 13H18.6C17.4 13 17 13.9 17 15Z" />
</svg>
